X: 13
T: STILL I LOVE HIM
S: "Community Dances Manual 5", EFDSS, Michael Bell ed., 1957 p.5
N: YARMOUTH
R: waltz
Z: 2010 John Chambers <jc:trillian.mit.edu>
M: 3/4
L: 1/4
K: D
D |\
"D"DFA | "A7"AGE | "D"EDE | "D"D2D | "D"DFA | "E7"ded | "A"cBc |
"A7"ABc | "D"d2"G"B | "D"AF2 | "A7"G2E | "D"FA2 | "G"d2B | "D"AFD | "A7"EFE | "D"D2 |]


%%sep 5 1 500

%%sep 1 1 500

